X:1
T:Jamie Allen
M:4/4
L:1/8
K:G
GA|"G"B2G2 G2A2|B4 G2AB|"Am"c2A2 A2B2|"C"c4 "G"B2A2|
"G"G2g2"Em"g2e2|"G"d4"G"B2Bc|d2d2"Am"cB A2|"G"G6:|
|:BA|"G"G2g2 g3f|"Em"e2d2"C"c2B2|"D"A2a2 a3g|f2d2"Em"e2f2|
"G"g3a "Em"g2e2|"G"d4 B2Bc|d2d2"Am"cB A2|"G"G6:|
%%newpage
%% *******************************************
